src/images/app-icons/light-theme/Security-001.svg

<svg xmlns="http://www.w3.org/2000/svg" viewBox="0 0 32 32"><defs><linearGradient id="Security-001_svg__a" x1="6" y1="25.5" x2="27" y2="25.5" gradientUnits="userSpaceOnUse"><stop offset=".1" stop-opacity="0"/><stop offset=".75"/></linearGradient><linearGradient id="Security-001_svg__c" y1="32" x2="32" gradientUnits="userSpaceOnUse"><stop offset=".2" stop-color="#8a3ffc"/><stop offset=".8" stop-color="#30b0ff"/></linearGradient><mask id="Security-001_svg__b" x="0" y="0" width="32" height="32" maskUnits="userSpaceOnUse"><path d="M15 29a9.011 9.011 0 01-9-9V7.618l9-4.5 11 5.5V6.382l-11-5.5-11 5.5V20a11 11 0 0022 0h-2a9.011 9.011 0 01-9 9z" fill="#fff"/><path fill="url(#Security-001_svg__a)" d="M6 19h21v13H6z"/></mask></defs><g data-name="Layer 2"><g data-name="Light theme icons"><g mask="url(#Security-001_svg__b)"><path fill="url(#Security-001_svg__c)" d="M0 0h32v32H0z"/></g><circle cx="17" cy="13" r="2" fill="#001d6c"/><circle cx="25" cy="13" r="2" fill="#001d6c"/><path d="M28 22h-2v-4h-2.465L21 21.8 18.465 18H16v4h-2v-4a2 2 0 012-2h3.535L21 18.2l1.465-2.2H26a2 2 0 012 2zM16 22h2v5h-2zM24 22h2v5h-2z" fill="#001d6c"/></g></g></svg>

<svg xmlns="http://www.w3.org/2000/svg" xmlns:xlink="http://www.w3.org/1999/xlink" viewBox="0 0 32 32"><defs><style>.cls-1{fill:#fff;}.cls-2{fill:url(#linear-gradient);}.cls-3{mask:url(#mask);}.cls-4{fill:url(#linear-gradient-2);}.cls-5{fill:#001d6c;}</style><linearGradient id="linear-gradient" x1="6" y1="25.5" x2="27" y2="25.5" gradientUnits="userSpaceOnUse"><stop offset="0.1" stop-opacity="0"/><stop offset="0.75"/></linearGradient><mask id="mask" x="0" y="0" width="32" height="32" maskUnits="userSpaceOnUse"><path class="cls-1" d="M15,29a9.011,9.011,0,0,1-9-9V7.618l9-4.5,11,5.5V6.382L15,.882,4,6.382V20a11,11,0,0,0,22,0H24A9.011,9.011,0,0,1,15,29Z"/><rect class="cls-2" x="6" y="19" width="21" height="13"/></mask><linearGradient id="linear-gradient-2" y1="32" x2="32" gradientUnits="userSpaceOnUse"><stop offset="0.2" stop-color="#8a3ffc"/><stop offset="0.8" stop-color="#30b0ff"/></linearGradient></defs><g id="Layer_2" data-name="Layer 2"><g id="Light_theme_icons" data-name="Light theme icons"><g class="cls-3"><rect class="cls-4" width="32" height="32"/></g><circle class="cls-5" cx="17" cy="13" r="2"/><circle class="cls-5" cx="25" cy="13" r="2"/><path class="cls-5" d="M28,22H26V18H23.535L21,21.8,18.465,18H16v4H14V18a2,2,0,0,1,2-2h3.535L21,18.2,22.465,16H26a2,2,0,0,1,2,2Z"/><rect class="cls-5" x="16" y="22" width="2" height="5"/><rect class="cls-5" x="24" y="22" width="2" height="5"/></g></g></svg>
